X:04081
T: Come o'er the stream, Charlie
O: Trad
R: waltz
B: RSCDS 4-8
Z: 1997 by John Chambers <jc@trillian.mit.edu>
N: Title of song by James Hogg, adapted by him to this contemporary Waltz tune circa 1822.
N: Suitable Pipe Tune "Speed bonnie boat".
M: 3/4
L: 1/4
%--------------------
K: G
|: D | "G"G>Bd | "G"dB"C"e | "G"dB"C"e | "G"dB"D7"A | "G"G>Bd | dBG | "D7"DBA | "G"G2 :|
y2 d | "G"g>fg | "C"efg | "A7"eag | "D"fed | "G"g>fg | "C"edc | "G"BAG | "D"d2 |]
|: B | "Am"cec | "G"Bdg | d>BA/G/ | "D7"BAd | "C"g>fe | "G"dgB | "D7"dcA | "G"G2 :|
